X: 38176
T: Spot, The
R: hornpipe
M: 4/4
K: Amajor
AGAB c2 BA|GABc d2 cB|AGAB c2 BA|GB E2 GB E2|
AGAB c2 BA|GABc d2 cB|cecA BdBG|A2 A2 A2:|
ecec a2 ec|gdfd a2 gd|ce A2 ce A2|GB E2 GB E2|
ecec a2 ec|gdgd a2 gd|cecA BdBG|A2 A2 A2:|

